!!!!SEGMENT: pl-sa--91-a-ii-31_pichl-vaclav--symfonia-allegro.krn
!!!cenid: 18xx:361
!!!COM: Pichl, Václav
!!!COM-rismid: pe30002511
!!!CDT: 1741/09/23-1805/01/23
!!!CNT: Czech
!!!OTL: Symfonia
!!!PDT: 1818
!!!AGN: Secular
!!!SMS-siglum: PL-SA
!!!SMS-shelfmark: 91/A II 31
!!!SMS-shelfwork: W
!!!SMS-variant:
!!!SMS-altvar:
!!!NIFC-rismid: 1001077279
!!!URL-scan: http://bc.bdsandomierz.pl/dlibra/publication/1368/edition/1336/content
!!!ONB-nifc: UWAGA: do Symfonii należy tylko część Allegro
!!!key:
**kern	**kern	**dynam	**kern	**dynam
*part3	*part2	*part2	*part1	*part1
*staff3	*staff2	*	*staff1	*
*Iempty	*Ivioln	*	*Ivioln	*
*I"Baſso.	*I"Violino Secundo.	*	*I"Violino Primo.	*
*I'B	*I'vl 2	*	*I'vl 1	*
*clefF4	*clefG2	*	*clefG2	*
*k[b-]	*k[b-]	*	*k[b-]	*
*F:	*F:	*	*F:	*
*M4/4	*M4/4	*	*M4/4	*
*met(C.)	*met(C.)	*	*met(C.)	*
=1	=1	=1	=1	=1
*2\right	*	*	*	*
*tremolo	*	*	*	*
*tremolo	*	*	*	*
!LO:TX:a:i:t=Synfonia	!LO:TX:a:i:t=Allo	!	!LO:TX:a:i:t=allo	!
!LO:TX:a:i:t=allo.	!LO:TX:a:i:t=Synfonia	!	!LO:TX:a:i:t=Synfonia	!LO:DY:t=p.
16F\LL	4A/	.	4f/	p
16F\	.	.	.	.
16F\	.	.	.	.
16F\	.	.	.	.
16F\	8r	.	8r	.
16F\	.	.	.	.
16F\	8c/	.	8a/	.
16F\JJ	.	.	.	.
16F\LL	8A/L	.	8f/L	.
16F\	.	.	.	.
16F\	8c/	.	8a/	.
16F\	.	.	.	.
16F\	8A/	.	8f/	.
16F\	.	.	.	.
16F\	8c/J	.	8a/J	.
16F\JJ	.	.	.	.
=2	=2	=2	=2	=2
16F\LL	4A/	.	4f/	.
16F\	.	.	.	.
16F\	.	.	.	.
16F\	.	.	.	.
16F\	8r	.	8r	.
16F\	.	.	.	.
16F\	8a/	.	8cc\	.
16F\JJ	.	.	.	.
16F\LL	8f/L	.	8a\L	.
16F\	.	.	.	.
16F\	8a/	.	8cc\	.
16F\	.	.	.	.
16F\	8f/	.	8a\	.
16F\	.	.	.	.
16F\	8a/J	.	8cc\J	.
16F\JJ	.	.	.	.
=3	=3	=3	=3	=3
16F\LL	4f/	.	4a/	.
16F\	.	.	.	.
16F\	.	.	.	.
16F\	.	.	.	.
16F\	8r	.	8r	.
16F\	.	.	.	.
16F\	8cc\	.	8ff\	.
16F\JJ	.	.	.	.
16F\LL	8a\L	.	8cc\L	.
16F\	.	.	.	.
16F\	8cc\	.	8ff\	.
16F\	.	.	.	.
16F\	8a\	.	8cc\	.
16F\	.	.	.	.
16F\	8cc\J	.	8ff\J	.
16F\JJ	.	.	.	.
=4	=4	=4	=4	=4
16F\LL	4a\	.	4cc\	.
16F\	.	.	.	.
16F\	.	.	.	.
16F\	.	.	.	.
*	*tremolo	*	*	*
.	.	.	8qgg/	.
16F\	16cc\LL	.	8ff\L	.
16F\	16cc\	.	.	.
16F\	16cc\	.	16ee\L	.
16F\JJ	16cc\JJ	.	16ff\JJ	.
*Xtremolo	*2\right	*	*	*
8E\L	16cc\LL	.	4gg\	.
.	16cc\	.	.	.
8E\	16cc\	.	.	.
.	16cc\	.	.	.
8C\	16cc\	.	4bb-\	.
.	16cc\	.	.	.
8C\J	16cc\	.	.	.
.	16cc\JJ	.	.	.
!	!	!	!LO:LB:g=original	!
=5	=5	=5	=5	=5
8F\L	16cc\LL	.	8aa\L	.
.	16cc\	.	.	.
8F\	16cc\	.	8aa\J	.
.	16cc\JJ	.	.	.
.	.	.	8qqbb-/	.
8D\	16ff\LL	.	8aa\L	.
.	16ff\	.	.	.
8D\J	16ff\	.	16gg\L	.
.	16ff\	.	16ff\JJ	.
8BB-/L	16ff\	.	8gg\L	.
.	16ff\	.	.	.
8BB-/	16ff\	.	8gg\J	.
.	16ff\JJ	.	.	.
.	.	.	8qqaa/	.
8C/	16ee\LL	.	8gg\L	.
.	16ee\	.	.	.
8C/J	16ee\	.	16ff\L	.
.	16ee\JJ	.	16gg\JJ	.
*	*Xtremolo	*	*	*
!	!LO:LB:g=original	!	!	!
=6	=6	=6	=6	=6
!LO:TX:t=P:problem:mixed beam	!	!	!	!
8FF/L	4ff 4a\	.	4ff\	.
8F\	.	.	.	.
8F\	8r	.	8r	.
8F\J	8c/	.	8a/	.
*tremolo	*	*	*	*
16F\LL	8A/L	.	8f/L	.
16F\	.	.	.	.
16F\	8c/	.	8a/	.
16F\	.	.	.	.
16F\	8A/	.	8f/	.
16F\	.	.	.	.
16F\	8c/J	.	8a/J	.
16F\JJ	.	.	.	.
=7	=7	=7	=7	=7
16F\LL	4A/	.	4f/	.
16F\	.	.	.	.
16F\	.	.	.	.
16F\	.	.	.	.
16F\	8r	.	8r	.
16F\	.	.	.	.
16F\	8a/	.	8cc\	.
16F\JJ	.	.	.	.
16F\LL	8f/L	.	8a/L	.
16F\	.	.	.	.
16F\	8a/	.	8cc/	.
16F\	.	.	.	.
16F\	8f/	.	8a/	.
16F\	.	.	.	.
16F\	8a/J	.	8cc/J	.
16F\JJ	.	.	.	.
!LO:LB:g=original	!	!	!	!
=8	=8	=8	=8	=8
16F\LL	4f/	.	4a\	.
16F\	.	.	.	.
16F\	.	.	.	.
16F\	.	.	.	.
16F\	8r	.	8r	.
16F\	.	.	.	.
16F\	8cc\	.	8ff\	.
16F\JJ	.	.	.	.
16F\LL	8a\L	.	8cc\L	.
16F\	.	.	.	.
16F\	8cc\	.	8ff\	.
16F\	.	.	.	.
16F\	8a\	.	8cc\	.
16F\	.	.	.	.
16F\	8cc\J	.	8ff\J	.
16F\JJ	.	.	.	.
=9	=9	=9	=9	=9
!	!	!	!LO:TX:a:t=P:problem:dziwny znaczek nad nutą, jakby przednutka, ale nie wiadomo na jakiej wysokości	!LO:DY:t=for
16F\LL	4a/	.	4cc\	f
16F\	.	.	.	.
16F\	.	.	.	.
16F\	.	.	.	.
*	*tremolo	*	*	*
16F\	16cc\LL	.	8ff\L	.
16F\	16cc\	.	.	.
16F\	16cc\	.	16ee\L	.
16F\JJ	16cc\JJ	.	16ff\JJ	.
*Xtremolo	*	*	*	*
8E\L	16a/LL	.	4gg\	.
.	16a/	.	.	.
8E\	16a/	.	.	.
.	16a/	.	.	.
8C\	16a/	.	4bb-\	.
.	16a/	.	.	.
8C\J	16a/	.	.	.
.	16a/JJ	.	.	.
!	!	!	!LO:LB:g=original	!
=10	=10	=10	=10	=10
8F\L	16cc\LL	.	8aa\L	.
.	16cc\	.	.	.
8F\	16cc\	.	8aa\J	.
.	16cc\JJ	.	.	.
.	.	.	8qqbb-/	.
8D\	16ff\LL	.	8aa\L	.
.	16ff\	.	.	.
8D\J	16ff\	.	16gg\L	.
.	16ff\	.	16ff\JJ	.
8BB-/L	16ff\	.	8gg\L	.
.	16ff\	.	.	.
8BB-/	16ff\	.	8gg\J	.
.	16ff\JJ	.	.	.
.	.	.	8qqaa/	.
8C/	16ee\LL	.	8gg\L	.
.	16ee\	.	.	.
8C/J	16ee\	.	16ff\L	.
.	16ee\JJ	.	16gg\JJ	.
*	*Xtremolo	*	*	*
=11	=11	=11	=11	=11
*tremolo	*	*	*2\right	*
16F\LL	2ff 2a\	.	2ff 2a\	.
16F\	.	.	.	.
16F\	.	.	.	.
16F\	.	.	.	.
16F\	.	.	.	.
16F\	.	.	.	.
16F\	.	.	.	.
16F\JJ	.	.	.	.
16F\LL	(8a\L	.	8ff\L	.
16F\	.	.	.	.
16F\	8cc\)	.	8ee-X\	.
16F\	.	.	.	.
16F\	8cc\|	.	8ee-\	.
16F\	.	.	.	.
16F\	8cc\J|	.	8ee-\J	.
16F\JJ	.	.	.	.
=12	=12	=12	=12	=12
16F\LL	(8cc\L	.	(8ee\L	.
16F\	.	.	.	.
16F\	8b-\)	.	8dd\)	.
16F\	.	.	.	.
16F\	8b-\|	.	8dd\|	.
16F\	.	.	.	.
16F\	8b-\J|	.	8dd\J|	.
16F\JJ	.	.	.	.
16F\LL	4b-\	.	4dd\	.
16F\	.	.	.	.
16F\	.	.	.	.
16F\	.	.	.	.
16F\	4r	.	4r	.
16F\	.	.	.	.
16F\	.	.	.	.
16F\JJ	.	.	.	.
!	!LO:LB:g=original	!	!	!
=13	=13	=13	=13	=13
16F\LL	2dd\	.	2bb-\	.
16F\	.	.	.	.
16F\	.	.	.	.
16F\	.	.	.	.
16F\	.	.	.	.
16F\	.	.	.	.
16F\	.	.	.	.
16F\JJ	.	.	.	.
16F\LL	(8dd\L	.	8bb-\L	.
16F\	.	.	.	.
16F\	8b-\)	.	8een\	.
16F\	.	.	.	.
16F\	8b-\|	.	8ee\	.
16F\	.	.	.	.
16F\	8b-\J|	.	8ee\J	.
16F\JJ	.	.	.	.
=14	=14	=14	=14	=14
16F\LL	8b-/L	.	(8gg\L	.
16F\	.	.	.	.
16F\	8a/	.	8ff\)	.
16F\	.	.	.	.
16F\	8a/	.	8ff\|	.
16F\	.	.	.	.
16F\	8a/J	.	8ff\J|	.
16F\JJ	.	.	.	.
16F\LL	4a/	.	4ff\	.
16F\	.	.	.	.
16F\	.	.	.	.
16F\	.	.	.	.
16F\	4r	.	4r	.
16F\	.	.	.	.
16F\	.	.	.	.
16F\JJ	.	.	.	.
=15	=15	=15	=15	=15
!	!	!	!	!LO:DY:t=f.
16F\LL	2A/	.	2f/	f
16F\	.	.	.	.
16F\	.	.	.	.
16F\	.	.	.	.
16F\	.	.	.	.
16F\	.	.	.	.
16F\	.	.	.	.
16F\JJ	.	.	.	.
!	!	!	!	!LO:DY:t=p.
16F\LL	(8A/L	.	8f/L	p
16F\	.	.	.	.
16F\	8c/)	.	8e-X/	.
16F\	.	.	.	.
16F\	8c/|	.	8e-/	.
16F\	.	.	.	.
16F\	8c/J|	.	8e-/J	.
16F\JJ	.	.	.	.
!	!	!	!LO:LB:g=original	!
=16	=16	=16	=16	=16
16F\LL	8c/L	.	8e/L	.
16F\	.	.	.	.
16F\	8B-/	.	8d/	.
16F\	.	.	.	.
16F\	8B-/	.	8d/	.
16F\	.	.	.	.
16F\	8B-/J	.	8d/J	.
16F\JJ	.	.	.	.
16F\LL	4B-/	.	4d/	.
16F\	.	.	.	.
16F\	.	.	.	.
16F\	.	.	.	.
16F\	4r	.	4r	.
16F\	.	.	.	.
16F\	.	.	.	.
16F\JJ	.	.	.	.
!LO:LB:g=original	!	!	!	!
=17	=17	=17	=17	=17
!	!	!	!	!LO:DY:t=foi
16F\LL	2d/	.	2b-/	f
16F\	.	.	.	.
16F\	.	.	.	.
16F\	.	.	.	.
16F\	.	.	.	.
16F\	.	.	.	.
16F\	.	.	.	.
16F\JJ	.	.	.	.
16F\LL	8d/L	.	8b-/L	.
16F\	.	.	.	.
16F\	8B-/	.	8en/	.
16F\	.	.	.	.
16F\	8B-/	.	8e/	.
16F\	.	.	.	.
16F\	8B-/J	.	8e/J	.
16F\JJ	.	.	.	.
*Xtremolo	*	*	*	*
=18	=18	=18	=18	=18
4F\	4A/	.	4f/	.
*	*tremolo	*	*tremolo	*
4r	16c/LL	.	16c/LL	.
.	16c/	.	16c/	.
.	16c/	.	16c/	.
.	16c/JJ	.	16c/JJ	.
2r	16f/LL	.	16f/LL	.
.	16f/	.	16f/	.
.	16f/	.	16f/	.
.	16f/JJ	.	16f/JJ	.
.	16a/LL	.	16a/LL	.
.	16a/	.	16a/	.
.	16a/	.	16a/	.
.	16a/JJ	.	16a/JJ	.
=19	=19	=19	=19	=19
!	!LO:TX:a:t=P:problem:mixed beam	!	!	!
4r	16cc\LL	.	16cc\LL	.
.	16c/	.	16cc\	.
.	16c/	.	16cc\	.
.	16c/JJ	.	16cc\	.
4C/	16c/LL	.	16cc\	.
.	16c/	.	16cc\	.
.	16c/	.	16cc\	.
.	16c/JJ	.	16cc\JJ	.
!	!LO:LB:g=original	!	!	!
4E/	16c/LL	.	16a/LL	.
.	16c/	.	16a/	.
.	16c/	.	16a/	.
.	16c/	.	16a/JJ	.
4G/	16c/	.	16f/LL	.
.	16c/	.	16f/	.
.	16c/	.	16f/	.
.	16c/JJ	.	16f/JJ	.
=20	=20	=20	=20	=20
2c\	16c/LL	.	16e/LL	.
.	16c/	.	16e/	.
.	16c/	.	16e/	.
.	16c/	.	16e/JJ	.
.	16c/	.	16c/LL	.
.	16c/	.	16c/	.
.	16c/	.	16c/	.
.	16c/JJ	.	16c/JJ	.
4A\	16c/LL	.	16f/LL	.
.	16c/	.	16f/	.
.	16c/	.	16f/	.
.	16c/	.	16f/JJ	.
4F\	16c/	.	16a/LL	.
.	16c/	.	16a/	.
.	16c/	.	16a/	.
.	16c/JJ	.	16a/JJ	.
=21	=21	=21	=21	=21
4E\	16c/LL	.	16cc\LL	.
.	16c/	.	16cc\	.
.	16c/	.	16cc\	.
.	16c/	.	16cc\	.
4C\	16c/	.	16cc\	.
.	16c/	.	16cc\	.
.	16c/	.	16cc\	.
.	16c/JJ	.	16cc\JJ	.
4F\	16c/LL	.	16a/LL	.
.	16c/	.	16a/	.
.	16c/	.	16a/	.
.	16c/	.	16a/JJ	.
4A\	16c/	.	16f/LL	.
.	16c/	.	16f/	.
.	16c/	.	16f/	.
.	16c/JJ	.	16f/JJ	.
=22	=22	=22	=22	=22
2c\	16c/LL	.	16e/LL	.
.	16c/	.	16e/	.
.	16c/	.	16e/	.
.	16c/	.	16e/JJ	.
.	16c/	.	16c/LL	.
.	16c/	.	16c/	.
.	16c/	.	16c/	.
.	16c/JJ	.	16c/JJ	.
!	!	!	!LO:LB:g=original	!
4A\	16c/LL	.	16f/LL	.
.	16c/	.	16f/	.
.	16c/	.	16f/	.
.	16c/	.	16f/JJ	.
4F\	16c/	.	16a/LL	.
.	16c/	.	16a/	.
.	16c/	.	16a/	.
.	16c/JJ	.	16a/JJ	.
*	*Xtremolo	*	*Xtremolo	*
=23	=23	=23	=23	=23
4E\	4c/	.	4cc\	.
4F\	4cc\	.	4aa\	.
4E\	4cc\	.	4gg\	.
4F\	4cc\	.	4aa\	.
=24	=24	=24	=24	=24
2E\	4cc\	.	4gg\	.
.	4r	.	(16cc\LL	.
.	.	.	32dd\L	.
.	.	.	32ee\	.
.	.	.	32ff\	.
.	.	.	32gg\	.
.	.	.	32aa\	.
.	.	.	32bbn\JJJ)	.
4r	4r	.	4ccc\	.
4F\	4cc\	.	4aa\	.
=25	=25	=25	=25	=25
4E\	4cc\	.	4gg\|	.
4F\	4cc\	.	4aa\|	.
4E\	4cc\	.	4gg\|	.
4F\	4cc\	.	4aa\|	.
!LO:LB:g=original	!	!	!	!
=26	=26	=26	=26	=26
4C/	4ee 4cc\	.	4gg\	.
4r	4r	.	4r	.
2r	2r	.	4r	.
.	.	.	4g/	.
=27	=27	=27	=27	=27
!LO:TX:a:t=4	!	!	!	!
00r	4r	.	4cc\	.
.	4e/	.	(2cc\	.
.	4g/	.	.	.
.	4a/	.	4dd\)	.
=28	=28	=28	=28	=28
.	2e/	.	2cc\	.
.	4d/	.	4bn\	.
.	4bn\	.	4dd\	.
!	!LO:LB:g=original	!	!	!
=29	=29	=29	=29	=29
.	(4cc\	.	4ee\	.
.	2cc\	.	2ee\	.
.	4dd\)	.	4ff\	.
!	!	!	!LO:LB:g=original	!
=30	=30	=30	=30	=30
.	2cc\	.	2ee\	.
.	4bn\	.	4dd\	.
.	4r	.	8ee\L	.
.	.	.	8ff\J	.
=31	=31	=31	=31	=31
1c	1e 1G	.	2gg\	.
.	.	.	(8gg\L	.
.	.	.	8ccc\	.
.	.	.	8ee\	.
.	.	.	8gg\J)	.
=32	=32	=32	=32	=32
1d	1f 1G	.	(8gg\L	.
.	.	.	8ff\	.
.	.	.	8ee\	.
.	.	.	8dd\J)	.
.	.	.	(8cc\L	.
.	.	.	8bn\	.
.	.	.	8a\	.
.	.	.	8g\J)	.
=33	=33	=33	=33	=33
4c\	1e 1G	.	4cc\	.
4G\	.	.	2cc\	.
4E\	.	.	.	.
4C/	.	.	(8dd\L	.
.	.	.	8ee\J)	.
=34	=34	=34	=34	=34
.	.	.	8qqee/	.
1G	1f 1G	.	2dd\	.
.	.	.	(8cc\L	.
.	.	.	8bn\	.
.	.	.	8a\	.
.	.	.	8g\J	.
=35	=35	=35	=35	=35
1c	2g/	.	2gg\)	.
.	8g\L	.	8gg\L	.
.	8cc\	.	8ccc\	.
.	8e\	.	8ee\	.
.	8g\J	.	8gg\J	.
=36	=36	=36	=36	=36
1d	8g/L	.	8gg\L	.
.	8f/	.	8ff\	.
.	8e/	.	8ee\	.
.	8d/J	.	8dd\J	.
.	8c/L	.	8cc\L	.
.	8Bn/	.	8bn\	.
.	8A/	.	8a\	.
.	8G/J	.	8g\J	.
!	!	!	!LO:LB:g=original	!
=37	=37	=37	=37	=37
4c\	4c/	.	4cc\	.
!	!LO:N:vis=4	!	!LO:N:vis=4.	!
4G\	4..c/	.	4..cc\	.
4E\	.	.	.	.
.	16d/KL	.	16dd\KL	.
4C\	8.e/	.	8.ee\	.
.	16f/Jk	.	16ff\Jk	.
=38	=38	=38	=38	=38
.	8qe/	.	8qqee/	.
1GG	2d/	.	2dd\	.
!	!LO:LB:g=original	!	!	!
.	8c/L	.	8cc\L	.
.	8Bn/	.	8bn\	.
.	8A/	.	8a\	.
.	8G/J	.	8g\J	.
=39	=39	=39	=39	=39
*tremolo	*tremolo	*	*tremolo	*
!	!	!	!	!LO:DY:t=for.
8C/L	16e 16G/LL	.	16cc\LL	f
.	16e 16G/	.	16cc\	.
8C/	16e 16G/	.	16cc\	.
.	16e 16G/	.	16cc\JJ	.
8C/	16e 16G/	.	16cc\LL	.
.	16e 16G/	.	16cc\	.
8C/J	16e 16G/	.	16cc\	.
.	16e 16G/JJ	.	16cc\JJ	.
4C/	4e 4G/	.	4cc\	.
4r	4r	.	4r	.
=40	=40	=40	=40	=40
8BBn/L	16dd\LL	.	16ff\LL	.
.	16dd\	.	16ff\	.
8BBn/	16dd\	.	16ff\	.
.	16dd\	.	16ff\	.
8BBn/	16dd\	.	16ff\	.
.	16dd\	.	16ff\	.
8BBn/J	16dd\	.	16ff\	.
.	16dd\JJ	.	16ff\JJ	.
!	!	!	!	!LO:DY:t=p.
4BB/	4dd\	.	4ff\	p
4r	4r	.	4r	.
=41	=41	=41	=41	=41
8C/L	16cc\LL	.	16ee\LL	.
.	16cc\	.	16ee\	.
8C/	16cc\	.	16ee\	.
.	16cc\	.	16ee\	.
8C/	16cc\	.	16ee\	.
.	16cc\	.	16ee\	.
8C/J	16cc\	.	16ee\	.
.	16cc\JJ	.	16ee\JJ	.
4C/	4cc\	.	4ee\	.
4r	4r	.	4r	.
!LO:LB:g=original	!	!	!	!
=42	=42	=42	=42	=42
8F\L	16cc\LL	.	16aa\LL	.
.	16cc\	.	16aa\	.
8F\	16cc\	.	16aa\	.
.	16cc\	.	16aa\	.
8F\	16cc\	.	16aa\	.
.	16cc\	.	16aa\	.
8F\J	16cc\	.	16aa\	.
.	16cc\JJ	.	16aa\JJ	.
*Xtremolo	*	*	*	*
8F\L	8cc\L	.	4aa\	.
*	*	*	*Xtremolo	*
8G\	8bn\	.	.	.
8A\	8cc\	.	4r	.
8Bn\J	8dd\J	.	.	.
=43	=43	=43	=43	=43
4c\	16ee\LL	.	8gg\L	.
.	16cc\	.	.	.
.	16cc\	.	8ccc\	.
.	16cc\JJ	.	.	.
8.C/L	16cc\LL	.	8ccc\	.
.	16cc\	.	.	.
.	16cc\	.	8ccc\J	.
16D/Jk	16cc\JJ	.	.	.
8E\L	16cc\LL	.	4.ccc\	.
.	16cc\	.	.	.
8E\	16cc\	.	.	.
.	16cc\	.	.	.
8F\	16cc\	.	.	.
.	16cc\	.	.	.
8F\J	16cc\	.	8aa\	.
.	16cc\JJ	.	.	.
!	!	!	!LO:LB:g=original	!
=44	=44	=44	=44	=44
*tremolo	*	*	*tremolo	*
8E\L	16cc\LL	.	16gg\LL	.
.	16cc\	.	16gg\	.
8E\	16cc\	.	16gg\	.
.	16cc\	.	16gg\JJ	.
8E\	16cc\	.	16gg#X\LL	.
.	16cc\	.	16gg#X\	.
8E\J	16cc\	.	16gg#X\	.
.	16cc\JJ	.	16gg#X\JJ	.
*Xtremolo	*	*	*	*
8F\L	16cc\LL	.	16aa\LL	.
.	16cc\	.	16aa\	.
8F\	16cc\	.	16aa\	.
.	16cc\	.	16aa\JJ	.
8A\	16cc\	.	16ff\LL	.
.	16cc\	.	16ff\	.
8A\J	16cc\	.	16ff\	.
.	16cc\JJ	.	16ff\JJ	.
=45	=45	=45	=45	=45
*tremolo	*	*	*	*
8G\L	16cc\LL	.	16ee\LL	.
.	16cc\	.	16ee\	.
8G\	16cc\	.	16ee\	.
.	16cc\	.	16ee\	.
8G\	16cc\	.	16ee\	.
.	16cc\	.	16ee\	.
8G\J	16cc\	.	16ee\	.
.	16cc\JJ	.	16ee\JJ	.
8GG/L	16bn\LL	.	16dd\LL	.
.	16bn\	.	16dd\	.
8GG/	16bn\	.	16dd\	.
.	16bn\JJ	.	16dd\	.
8GG/	16b\LL	.	16dd\	.
.	16b\	.	16dd\	.
8GG/J	16b\	.	16dd\	.
.	16b\JJ	.	16dd\JJ	.
!	!LO:LB:g=original	!	!	!
=46	=46	=46	=46	=46
8c\L	16e/LL	.	16cc\LL	.
.	16e/	.	16cc\	.
8c\	16e/	.	16cc\	.
.	16e/	.	16cc\	.
8c\	16e/	.	16cc\	.
.	16e/	.	16cc\	.
8c\J	16e/	.	16cc\	.
.	16e/JJ	.	16cc\JJ	.
4c\	4e/	.	4cc\	.
4r	4r	.	4r	.
=47	=47	=47	=47	=47
8Bn\L	16dd\LL	.	16ff\LL	.
.	16dd\	.	16ff\	.
8Bn\	16dd\	.	16ff\	.
.	16dd\	.	16ff\JJ	.
8Bn\	16dd\	.	16ff\LL	.
.	16dd\	.	16ff\	.
8Bn\J	16dd\	.	16ff\	.
.	16dd\JJ	.	16ff\JJ	.
4B\	4dd\	.	4ff\	.
4r	4r	.	4r	.
=48	=48	=48	=48	=48
8c\L	16cc\LL	.	16ee\LL	.
.	16cc\	.	16ee\	.
8c\	16cc\	.	16ee\	.
.	16cc\	.	16ee\	.
8c\	16cc\	.	16ee\	.
.	16cc\	.	16ee\	.
8c\J	16cc\	.	16ee\	.
.	16cc\JJ	.	16ee\JJ	.
4c\	4cc\	.	4ee\	.
4r	4r	.	4r	.
=49	=49	=49	=49	=49
8G\L	16cc#X\LL	.	16bb-X\LL	.
.	16cc#X\	.	16bb-X\	.
8G\	16cc#X\	.	16bb-X\	.
.	16cc#X\	.	16bb-X\	.
8G\	16cc#X\	.	16bb-X\	.
.	16cc#X\	.	16bb-X\	.
8G\J	16cc#X\	.	16bb-X\	.
.	16cc#X\JJ	.	16bb-X\JJ	.
4G\	4cc#\	.	4bb-\	.
*	*	*	*Xtremolo	*
4r	4r	.	4r	.
*Xtremolo	*	*	*	*
!LO:LB:g=original	!	!	!	!
=50	=50	=50	=50	=50
!LO:TX:a:t=1	!	!	!	!
!LO:TX:a:t=50.	!	!	!	!
1r	4f/	.	4r	.
.	4r	.	4aa\	.
.	2r	.	4aa\	.
!	!	!	!LO:TX:a:t=50.	!
.	.	.	4aa\	.
!	!	!	!LO:LB:g=original	!
=51	=51	=51	=51	=51
*	*^	*	*	*
!	!	!	!	!	!LO:DY:t=for
2A\	2a/	2e/	.	4.cc#X\	f
.	.	.	.	16dd\LL	.
.	.	.	.	16ee\JJ	.
2D\	4a/	4f\	.	4dd\	.
.	4r	4ryy	.	4r	.
*	*v	*v	*	*	*
=52	=52	=52	=52	=52
!LO:TX:a:t=1	!	!	!	!
1r	4e/	.	4r	.
.	4r	.	4gg\	.
.	2rg	.	(8aa\L	.
.	.	.	8gg\	.
.	.	.	8ff#X\	.
.	.	.	8gg\J)	.
=53	=53	=53	=53	=53
2G\	2f 2G/	.	4.bn\	.
.	.	.	16cc\LL	.
.	.	.	16dd\JJ	.
2C/	4e 4G/	.	4cc\	.
.	4r	.	4r	.
=54	=54	=54	=54	=54
2r	2rg	.	8gg\L	.
.	.	.	8ff\J	.
.	.	.	2ff\	.
4r	4r	.	.	.
4c\	4a-X/	.	4ff\	.
!	!LO:LB:g=original	!	!	!
=55	=55	=55	=55	=55
4Bn\	4g/	.	4ff\	.
4c\	(4a-X/	.	2ddd\	.
4B\	4g/	.	.	.
!	!	!	!LO:TX:a:t=P:problem:kreska nad kreską	!
4c\	4a-/)	.	4ff\	.
=56	=56	=56	=56	=56
4Bn\	4g/	.	4ff\	.
4r	4r	.	2ff\	.
4r	4r	.	.	.
4c\	4a-X/	.	4ff\	.
=57	=57	=57	=57	=57
4Bn\	4g/	.	4ff\	.
4c\	(4a-X/	.	2ddd\	.
4B\	4g/	.	.	.
4c\	4a-/)	.	4ff\	.
!	!	!	!LO:LB:g=original	!
=58	=58	=58	=58	=58
4Bn\	4g/	.	4ff\	.
4r	4G/	.	(4g\	.
2r	4Bn/	.	4bn\	.
.	4d/	.	4dd\)	.
=59	=59	=59	=59	=59
!LO:TX:a:t=1	!	!	!	!
1r	4f 4G/	.	4ff\	.
.	4r	.	4r	.
.	2rg	.	2r	.
=60	=60	=60	=60	=60
*	*	*	*tremolo	*
8c\L	4g/	.	16ee\LL	.
.	.	.	16ee\	.
8c\	.	.	16ee\	.
.	.	.	16ee\JJ	.
8E\	16cc\LL	.	16ccc\LL	.
.	16cc\	.	16ccc\	.
8E\J	16cc\	.	16ccc\	.
.	16cc\JJ	.	16ccc\JJ	.
!LO:LB:g=original	!	!	!	!
8F\L	16cc\LL	.	16aa\LL	.
.	16cc\	.	16aa\	.
8F\	16cc\	.	16aa\	.
.	16cc\	.	16aa\JJ	.
8A\	16cc\	.	16ff\LL	.
.	16cc\	.	16ff\	.
8A\J	16cc\	.	16ff\	.
.	16cc\JJ	.	16ff\JJ	.
=61	=61	=61	=61	=61
!LO:TX:a:t=P:problem:brak taktu, na marginesie notatka ołówkiem	!	!	!	!
1ryy	16cc\LL	.	16ee\LL	.
.	16cc\	.	16ee\	.
.	16cc\	.	16ee\	.
.	16cc\	.	16ee\	.
.	16cc\	.	16ee\	.
.	16cc\	.	16ee\	.
.	16cc\	.	16ee\	.
.	16cc\JJ	.	16ee\JJ	.
.	16bn\LL	.	16dd\LL	.
.	16bn\	.	16dd\	.
.	16bn\	.	16dd\	.
.	16bn\	.	16dd\	.
.	16bn\	.	16dd\	.
.	16bn\	.	16dd\	.
.	16bn\	.	16dd\	.
.	16bn\JJ	.	16dd\JJ	.
*	*	*	*Xtremolo	*
=62	=62	=62	=62	=62
2c\	4cc\	.	4cc\	.
.	2c/	.	2cc\	.
2B-X\	.	.	.	.
.	8d/L	.	8dd\L	.
.	8e/J	.	8ee\J	.
!	!LO:LB:g=original	!	!	!
=63	=63	=63	=63	=63
2A\	4f/	.	4ff\	.
.	2f/	.	2ff\	.
2F\	.	.	.	.
.	8g/L	.	8gg\L	.
.	8a/J	.	8aa\J	.
=64	=64	=64	=64	=64
2E\	8a/L	.	8aa\L	.
.	8g/J	.	8gg\J	.
.	2g/	.	2gg\	.
2A\	.	.	.	.
.	8f/L	.	8ff\L	.
.	8e/J	.	8ee\J	.
=65	=65	=65	=65	=65
4F\	8g/L	.	8ee\L	.
.	8f/J	.	8dd\J	.
8G\L	2e/	.	2cc\	.
8F\J	.	.	.	.
4G\	.	.	.	.
4GG/	4d/	.	4bn\	.
!	!	!	!LO:LB:g=original	!
=66	=66	=66	=66	=66
.	.	.	8qqb-/	.
2c\	4e/	.	4cc\	.
.	2c/	.	2cc\	.
2B-X\	.	.	.	.
.	8d/L	.	8dd\L	.
.	8e/J	.	8ee\J	.
=67	=67	=67	=67	=67
2A\	4f/	.	4ff\	.
.	2f/	.	2ff\	.
2F\	.	.	.	.
.	8g/L	.	8gg\L	.
.	8a/J	.	8aa\J	.
=68	=68	=68	=68	=68
2E\	8a/L	.	8aa\L	.
.	(8g/J	.	8gg\J	.
.	2g/	.	2gg\	.
2A\	.	.	.	.
.	8f/L	.	8ff\L	.
.	8e/J)	.	8ee\J	.
=69	=69	=69	=69	=69
4D\	8g/L	.	8ee\L	.
.	8f/J	.	8dd\J	.
8G\L	2e/	.	2cc\	.
8F\J	.	.	.	.
4G\	.	.	.	.
4GG/	4d/	.	4bn\	.
=70	=70	=70	=70	=70
*tremolo	*	*	*	*
8C/L	16e 16c/LL	.	4cc\	.
.	16e 16c/	.	.	.
8C/	16e 16c/	.	.	.
.	16e 16c/	.	.	.
8C/	16e 16c/	.	8r	.
.	16e 16c/	.	.	.
8C/J	16e 16c/	.	8c/	.
.	16e 16c/JJ	.	.	.
!LO:LB:g=original	!	!	!	!
8C/L	16e 16c/LL	.	8e/L	.
.	16e 16c/	.	.	.
8C/	16e 16c/	.	8c/	.
.	16e 16c/	.	.	.
8C/	16e 16c/	.	8e/	.
.	16e 16c/	.	.	.
8C/J	16e 16c/	.	8g/J	.
.	16e 16c/JJ	.	.	.
!	!LO:LB:g=original	!	!	!
=71	=71	=71	=71	=71
8C/L	16e 16c/LL	.	4e/	.
.	16e 16c/	.	.	.
8C/	16e 16c/	.	.	.
.	16e 16c/	.	.	.
8C/	16e 16c/	.	8r	.
.	16e 16c/	.	.	.
8C/J	16e 16c/	.	8e/	.
.	16e 16c/JJ	.	.	.
8C/L	16e 16c/LL	.	8g/L	.
.	16e 16c/	.	.	.
8C/	16e 16c/	.	8e/	.
.	16e 16c/	.	.	.
8C/	16e 16c/	.	8g/	.
.	16e 16c/	.	.	.
8C/J	16e 16c/	.	8cc/J	.
.	16e 16c/JJ	.	.	.
=72	=72	=72	=72	=72
8C/L	16e 16c/LL	.	4g/	.
.	16e 16c/	.	.	.
8C/	16e 16c/	.	.	.
.	16e 16c/	.	.	.
8C/	16e 16c/	.	8r	.
.	16e 16c/	.	.	.
8C/J	16e 16c/	.	8g/	.
.	16e 16c/JJ	.	.	.
!	!	!	!LO:LB:g=original	!
8C/L	16e 16c/LL	.	8cc\L	.
.	16e 16c/	.	.	.
8C/	16e 16c/	.	8g\	.
.	16e 16c/	.	.	.
8C/	16e 16c/	.	8cc\	.
.	16e 16c/	.	.	.
8C/J	16e 16c/	.	8ee\J	.
.	16e 16c/JJ	.	.	.
=73	=73	=73	=73	=73
8C/L	16e 16c/LL	.	4cc\	.
.	16e 16c/	.	.	.
8C/	16e 16c/	.	.	.
.	16e 16c/	.	.	.
8C/	16e 16c/	.	8r	.
.	16e 16c/	.	.	.
8C/J	16e 16c/	.	8cc\	.
.	16e 16c/JJ	.	.	.
8C/L	16e 16c/LL	.	8ee\L	.
.	16e 16c/	.	.	.
8C/	16e 16c/	.	8cc\	.
.	16e 16c/	.	.	.
8C/	16e 16c/	.	8ee\	.
.	16e 16c/	.	.	.
8C/J	16e 16c/	.	8gg\J	.
.	16e 16c/JJ	.	.	.
*Xtremolo	*	*	*	*
=74	=74	=74	=74	=74
8c\L	16e/LL	.	4ee\	.
.	16e/	.	.	.
8Bn\	16e/	.	.	.
.	16e/JJ	.	.	.
8A\	16ee\LL	.	2ccc\	.
.	16ee\	.	.	.
8E\J	16ee\	.	.	.
.	16ee\JJ	.	.	.
!LO:TX:t=P:problem:mixed beam	!	!	!	!
8F\L	16dd\LL	.	.	.
.	16dd\	.	.	.
8D\	16dd\	.	.	.
.	16dd\	.	.	.
8G\	16dd\	.	4bbn\	.
.	16dd\	.	.	.
8GG/J	16dd\	.	.	.
.	16dd\JJ	.	.	.
=75	=75	=75	=75	=75
8c\L	16ee\LL	.	4ccc\	.
.	16ee\	.	.	.
8Bn\	16ee\	.	.	.
.	16ee\	.	.	.
8A\	16ee\	.	2ccc\	.
.	16ee\	.	.	.
8F\J	16ee\	.	.	.
.	16ee\JJ	.	.	.
!LO:TX:t=P:problem:mixed beam	!	!	!	!
8F\L	16dd\LL	.	.	.
.	16dd\	.	.	.
8D\	16dd\	.	.	.
.	16dd\	.	.	.
8G\	16dd\	.	4bbn\	.
.	16dd\	.	.	.
8GG/J	16dd\	.	.	.
.	16dd\JJ	.	.	.
=76	=76	=76	=76	=76
4C/	4ee\	.	4ccc 4ee\	.
4r	4r	.	4r	.
4C/	4ee 4cc\	.	4ccc 4ee\	.
4C/	4ee 4cc\	.	4ccc 4ee\	.
=77	=77	=77	=77	=77
2C/	2ee 2cc\	.	2ccc 2ee\	.
2rC	2r	.	4r	.
.	.	.	4g/	.
=78	=78	=78	=78	=78
!LO:TX:a:t=4	!	!	!	!
00r	4r	.	4cc\	.
.	4c/	.	2cc\	.
.	4e/	.	.	.
.	4f/	.	4dd\	.
=79	=79	=79	=79	=79
.	4g/	.	4cc\	.
.	4f/	.	4bn\	.
.	4e/	.	4cc\	.
.	4Bn/	.	4dd\	.
!	!	!	!LO:PB:g=original	!
=80	=80	=80	=80	=80
.	4c/	.	4ee\	.
.	4cc\	.	2ee\	.
!	!LO:LB:g=original	!	!	!
.	4a/	.	.	.
.	4f/	.	4ff\	.
=81	=81	=81	=81	=81
.	4r	.	2ee\	.
.	4g/	.	.	.
.	4G/	.	4dd/	.
.	4r	.	4g/ 4G/	.
=82	=82	=82	=82	=82
4r	4dd\	.	4ddd\	.
4d\	2ff\	.	2ddd\	.
!LO:LB:g=original	!	!	!	!
4Bn\	.	.	.	.
4G\	4dd\	.	4dd\	.
=83	=83	=83	=83	=83
4r	4cc\	.	4ee\	.
4c\	2ee\	.	2ccc\	.
4A\	.	.	.	.
4E\	4g/	.	4cc\	.
=84	=84	=84	=84	=84
.	.	.	8qqee/	.
4F\	4a/	.	4dd\	.
8G\L	2e/	.	2cc\	.
8F\J	.	.	.	.
4G\	.	.	.	.
4GG/	4d/	.	4bn\	.
=85	=85	=85	=85	=85
4C/	4d/	.	4bn\	.
4c\	4e/	.	4cc\	.
4C/	2rg	.	4r	.
4r	.	.	4a/	.
=86	=86	=86	=86	=86
!LO:TX:a:t=3	!	!	!	!
0r	4r	.	4dd\	.
.	4d/	.	2dd\	.
.	4f/	.	.	.
.	4g/	.	4ee\	.
=87	=87	=87	=87	=87
.	4a/	.	4dd\	.
.	4g/	.	(4cc#X\	.
.	4f/	.	4dd\	.
.	4c#X/	.	4ee\)	.
=88	=88	=88	=88	=88
1r	(4d/	.	4ff\	.
.	2dd\	.	2ff\	.
.	4ee\)	.	4gg\	.
!	!	!	!LO:LB:g=original	!
=89	=89	=89	=89	=89
2r	(2dd\	.	2ff\	.
4r	4cc#X\)	.	4ee\	.
16A\LL	4r	.	4aa\	.
16G\	.	.	.	.
16F\	.	.	.	.
16E\JJ	.	.	.	.
!	!LO:LB:g=original	!	!	!
=90	=90	=90	=90	=90
!	!	!LO:DY:t=for	!	!
4D\	8ffn\	f	8aa\	.
.	4dd\	.	4aa\	.
8r	.	.	.	.
8F\	4dd\	.	4aa\	.
8D\L	.	.	.	.
8F\	4dd\	.	4aa\	.
8D\	.	.	.	.
8F\J	8dd\	.	8aa\	.
=91	=91	=91	=91	=91
4G\	8dd\	.	8bb-\	.
.	4dd\	.	4bb-\	.
8r	.	.	.	.
8B-\	4dd\	.	4bb-\	.
!LO:LB:g=original	!	!	!	!
8G\L	.	.	.	.
8B-\	4dd\	.	4bb-\	.
8G\	.	.	.	.
8B-\J	8dd\	.	8bb-\	.
=92	=92	=92	=92	=92
4C/	8ee\	.	8bb-\	.
.	4ee\	.	4bb-\	.
8r	.	.	.	.
8E\	4ee\	.	4bb-\	.
8C\L	.	.	.	.
8E\	4ee\	.	4bb-\	.
8C\	.	.	.	.
8E\J	8ee\	.	8bb-\	.
=93	=93	=93	=93	=93
4F\	8ee\	.	8aa\	.
.	4ee\	.	4aa\	.
8r	.	.	.	.
8A\	4ee\	.	4aa\	.
8F\L	.	.	.	.
8A\	4ee\	.	4aa\	.
8F\	.	.	.	.
8A\J	8ee\	.	8aa\	.
=94	=94	=94	=94	=94
4BB-/	8dd\	.	8aa\	.
.	4dd\	.	4aa\	.
8r	.	.	.	.
8D\	4dd\	.	4aa\	.
8BB-/L	.	.	.	.
8D/	4dd\	.	4aa\	.
8BB-/	.	.	.	.
8D/J	8dd\	.	8aa\	.
=95	=95	=95	=95	=95
4E\	8dd\	.	8gg\	.
.	4dd\	.	4gg\	.
8r	.	.	.	.
8G\	4dd\	.	4gg\	.
8E\L	.	.	.	.
8G\	4dd\	.	4gg\	.
8E\	.	.	.	.
8G\J	8dd\	.	8gg\	.
!	!LO:PB:g=original	!	!LO:LB:g=original	!
=96	=96	=96	=96	=96
4A\	8cc#X\	.	8gg\	.
.	4cc#\	.	4gg\	.
8r	.	.	.	.
8c#X\	4cc#\	.	4gg\	.
8A\L	.	.	.	.
8c#\	4cc#\	.	4gg\	.
8A\	.	.	.	.
8c#\J	8cc#\	.	8gg\	.
!LO:PB:g=original	!	!	!	!
=97	=97	=97	=97	=97
*	*	*	*tremolo	*
8d\L	16dd\LL	.	16ff\LL	.
.	16dd\	.	16ff\	.
8cn\	16dd\	.	16ff\	.
.	16dd\JJ	.	16ff\	.
8B-\	16dd\LL	.	16ff\	.
.	16dd\	.	16ff\	.
8F\J	16dd\	.	16ff\	.
.	16dd\	.	16ff\JJ	.
!LO:TX:t=P:problem:mixed beam	!	!	!	!
8G\L	16dd\	.	16ee\LL	.
.	16dd\	.	16ee\	.
8E\	16dd\	.	16ee\	.
.	16dd\JJ	.	16ee\	.
8A\	16cc#X\LL	.	16ee\	.
.	16cc#X\	.	16ee\	.
8AA/J	16cc#X\	.	16ee\	.
.	16cc#X\JJ	.	16ee\JJ	.
=98	=98	=98	=98	=98
8d\L	16dd\LL	.	16ff\LL	.
.	16dd\	.	16ff\	.
8c\	16dd\	.	16ff\	.
.	16dd\JJ	.	16ff\JJ	.
8B-\	16ff\LL	.	16ddd\LL	.
.	16ff\	.	16ddd\	.
8F\J	16ff\	.	16ddd\	.
.	16ff\JJ	.	16ddd\	.
!LO:TX:t=P:problem:mixed beam	!	!	!	!
8G\L	16ee\LL	.	16ddd\	.
.	16ee\	.	16ddd\	.
8E\	16ee\	.	16ddd\	.
.	16ee\	.	16ddd\JJ	.
8A\	16ee\	.	16ccc#X\LL	.
.	16ee\	.	16ccc#X\	.
8AA/J	16ee\	.	16ccc#X\	.
.	16ee\JJ	.	16ccc#X\JJ	.
*	*	*	*Xtremolo	*
=99	=99	=99	=99	=99
!	!	!	!LO:TX:a:t=P:problem:nadmiarowe pauzy w Basso	!
4D\	1ryy	.	1ryy	.
4r	.	.	.	.
2rC	.	.	.	.
=100	=100	=100	=100	=100
4r	16dd\LL	.	4ddd\	.
.	16dd\	.	.	.
.	16dd\	.	.	.
.	16dd\JJ	.	.	.
*	*Xtremolo	*	*	*
8.F\L	4r	.	4ff\	.
16F\Jk	.	.	.	.
4F\	4f/	.	4ff\	.
4F\	4f/	.	4ff\	.
=101	=101	=101	=101	=101
!LO:TX:b:t=50.	!	!	!	!
2BB-/	8f/	.	8ff\	.
.	4ee-X 4f/	.	4aa 4ccn\	.
.	4ee- 4f/	.	4aa 4cc\	.
2rC	.	.	.	.
.	4ee- 4f/	.	4aa 4cc\	.
!	!	!	!LO:TX:a:t=50	!
.	8ee- 8f/	.	8aa 8cc\	.
=102	=102	=102	=102	=102
4r	4dd 4f/	.	4bb-X\ 4ee\	.
8.G\L	4g/	.	4gg\	.
16G\Jk	.	.	.	.
4G\	(8f#X/L	.	8ff#X\L	.
.	8g/	.	8gg\	.
4G\	8g/	.	8aa\	.
.	8g/J)	.	8gg\J	.
=103	=103	=103	=103	=103
*tremolo	*	*	*	*
8C/L	8g/	.	8gg\	.
8C/	4ff 4dd\	.	4ddd\	.
8C/	.	.	.	.
8C/J	4ff 4dd\	.	4ddd\	.
8C/L	.	.	.	.
8C/	4ff 4dd\	.	4ddd\	.
8C/	.	.	.	.
8C/J	8ff 8dd\	.	8ddd\	.
!	!	!	!LO:LB:g=original	!
=104	=104	=104	=104	=104
8C/L	4ee 4cc\	.	4ccc\	.
8C/	.	.	.	.
8C/	4r	.	4r	.
8C/J	.	.	.	.
8C/L	2a/	.	2cc\	.
8C/	.	.	.	.
8C/	.	.	.	.
8C/J	.	.	.	.
!LO:LB:g=original	!LO:LB:g=original	!	!	!
=105	=105	=105	=105	=105
8C/L	2g/	.	(<2b-X\	.
8C/	.	.	.	.
8C/	.	.	.	.
8C/J	.	.	.	.
8C/L	2f/	.	2a/)	.
8C/	.	.	.	.
8C/	.	.	.	.
8C/J	.	.	.	.
=106	=106	=106	=106	=106
8C/L	2e/	.	(2g/	.
8C/	.	.	.	.
8C/	.	.	.	.
8C/J	.	.	.	.
8C/L	2c/	.	2a/)	.
8C/	.	.	.	.
8C/	.	.	.	.
8C/J	.	.	.	.
=107	=107	=107	=107	=107
8C/L	2B-/	.	2g/	.
8C/	.	.	.	.
8C/	.	.	.	.
8C/J	.	.	.	.
8C/L	2A/	.	2f/	.
8C/	.	.	.	.
8C/	.	.	.	.
8C/J	.	.	.	.
=108	=108	=108	=108	=108
8C/L	2G/	.	2e/	.
8C/	.	.	.	.
8C/	.	.	.	.
8C/J	.	.	.	.
8C/L	8c/L	.	8e/L	.
8C/	8a/	.	8cc/	.
8C/	8a/	.	8cc/	.
8C/J	8a/J	.	8cc/J	.
=109	=109	=109	=109	=109
8C/L	(8a/L	.	(8cc\L	.
8C/	8g/)	.	8b-\)	.
8C/	8g/|	.	8b-\|	.
8C/J	8g/J|	.	8b-\J|	.
8C/L	(8g/L	.	(8b-/L	.
8C/	8f/)	.	8a/)	.
8C/	8f/|	.	8a/|	.
8C/J	8f/J|	.	8a/J|	.
=110	=110	=110	=110	=110
8C/L	(8f/L	.	(8a/L	.
8C/	8e/)	.	8g/)	.
8C/	8e/|	.	8g/|	.
8C/J	8e/J|	.	8g/J|	.
8C/L	(8e/L	.	(8g/L	.
8C/	8c/)	.	8a/)	.
8C/	8c/|	.	8a/|	.
8C/J	8c/J|	.	8a/J|	.
=111	=111	=111	=111	=111
4C/	(8c/L	.	(8a/L	.
.	8B-/)	.	8g/)	.
4r	8B-/|	.	8g/|	.
.	8B-/J|	.	8g/J|	.
4c\	8B-/L	.	(8g/L	.
.	8A/	.	8f/)	.
4r	8A/	.	8f/|	.
.	8A/J	.	8f/J|	.
=112	=112	=112	=112	=112
!LO:TX:a:t=P:problem:takt zapisany repetycją, adnotacja bis	!	!	!	!
4C/yy	4G/	.	4e/	.
4ryy	4r	.	4r	.
4c\yy	4e 4G/	.	4e 4c/	.
4ryy	4r	.	4r	.
!	!LO:LB:g=original	!	!LO:LB:g=original	!
=113	=113	=113	=113	=113
4c\	4e 4G/	.	4e 4c/	.
8c\L	4r	.	4r	.
8d\J	.	.	.	.
8c\L	2rg	.	2rg	.
8B-\	.	.	.	.
8A\	.	.	.	.
8G\J	.	.	.	.
=114	=114	=114	=114	=114
8F\L	4A/	.	4f/	.
8F\	.	.	.	.
8F\	8r	.	8r	.
8F\J	8c/	.	8a/	.
8F\L	8A/L	.	8f/L	.
8F\	8c/	.	8a/	.
8F\	8A/	.	8f/	.
8F\J	8c/J	.	8a/J	.
!LO:LB:g=original	!	!	!	!
=115	=115	=115	=115	=115
8F\L	4A/	.	4f/	.
8F\	.	.	.	.
8F\	8r	.	8r	.
8F\J	8a/	.	8cc\	.
8F\L	8f/L	.	8a\L	.
8F\	8a/	.	8cc\	.
8F\	8f/	.	8a\	.
8F\J	8a/J	.	8cc\J	.
=116	=116	=116	=116	=116
8F\L	4f/	.	4a/	.
8F\	.	.	.	.
8F\	8r	.	8r	.
8F\J	8cc\	.	8ff\	.
8F\L	8a\L	.	8cc\L	.
8F\	8cc\	.	8ff\	.
8F\	8a\	.	8cc\	.
8F\J	8cc\J	.	8ff\J	.
=117	=117	=117	=117	=117
8F\L	4a/	.	4cc\	.
8F\	.	.	.	.
.	.	.	8qqgg/	.
*	*tremolo	*	*	*
8F\	16cc\LL	.	8ff\L	.
.	16cc\	.	.	.
8F\J	16cc\	.	16ee\L	.
.	16cc\JJ	.	16ff\JJ	.
*Xtremolo	*	*	*	*
8E\L	16cc\LL	.	4gg\	.
.	16cc\	.	.	.
8E\	16cc\	.	.	.
.	16cc\	.	.	.
8C\	16cc\	.	4bb-\	.
.	16cc\	.	.	.
8C\J	16cc\	.	.	.
.	16cc\JJ	.	.	.
=118	=118	=118	=118	=118
8F\L	16cc\LL	.	8aa\L	.
.	16cc\	.	.	.
8F\	16cc\	.	8aa\J	.
.	16cc\JJ	.	.	.
.	.	.	8qqbb-/	.
8D\	16ff\LL	.	8aa\L	.
.	16ff\	.	.	.
8D\J	16ff\	.	16gg\L	.
.	16ff\	.	16ff\JJ	.
8BB-/L	16ff\	.	8gg\L	.
.	16ff\	.	.	.
8BB-/	16ff\	.	8gg\J	.
.	16ff\JJ	.	.	.
.	.	.	8qqaa/	.
8C/	16ee\LL	.	8gg\L	.
.	16ee\	.	.	.
8C/J	16ee\	.	16ff\L	.
.	16ee\JJ	.	16gg\JJ	.
*	*Xtremolo	*	*	*
=119	=119	=119	=119	=119
*tremolo	*	*	*	*
8F\L	2ff 2a\	.	2ff 2a\	.
8F\	.	.	.	.
8F\	.	.	.	.
8F\J	.	.	.	.
8F\L	8a\L	.	8ff\L	.
8F\	8cc\	.	8ee-X\	.
8F\	8cc\	.	8ee-\	.
8F\J	8cc\J	.	8ee-\J	.
=120	=120	=120	=120	=120
8F\L	8cc\L	.	8ee\L	.
8F\	8b-\	.	8dd\J	.
!	!	!	!LO:LB:g=original	!
8F\	8b-\	.	8dd\L	.
8F\J	8b-\J	.	8dd\J	.
8F\L	4b-\	.	4dd\	.
8F\	.	.	.	.
8F\	4r	.	4r	.
8F\J	.	.	.	.
=121	=121	=121	=121	=121
8F\L	2dd\	.	2bb- 2dd\	.
8F\	.	.	.	.
8F\	.	.	.	.
8F\J	.	.	.	.
8F\L	8dd\L	.	8bb-\L	.
8F\	8b-\	.	8een\	.
8F\	8b-\	.	8ee\	.
8F\J	8b-\J	.	8ee\J	.
!	!LO:LB:g=original	!	!	!
=122	=122	=122	=122	=122
8F\L	8b-/L	.	(8gg\L	.
8F\	8a/	.	8ff\)	.
8F\	8a/	.	8ff\|	.
8F\J	8a/J	.	8ff\J|	.
8F\L	4a/	.	4ff\	.
8F\	.	.	.	.
8F\	4r	.	4r	.
8F\J	.	.	.	.
=123	=123	=123	=123	=123
8F\L	2A/	.	2f/	.
8F\	.	.	.	.
8F\	.	.	.	.
8F\J	.	.	.	.
8F\L	8A/L	.	(8f/L	.
8F\	8c/	.	8e-X/)	.
8F\	8c/	.	8e-/|	.
8F\J	8c/J	.	8e-/J|	.
=124	=124	=124	=124	=124
8F\L	8c/L	.	8e/L	.
8F\	8B-/	.	8d/	.
8F\	8B-/	.	8d/	.
8F\J	8B-/J	.	8d/J	.
8F\L	4B-/	.	4d/	.
8F\	.	.	.	.
8F\	4r	.	4r	.
8F\J	.	.	.	.
!LO:LB:g=original	!	!	!	!
=125	=125	=125	=125	=125
8F\L	2d/	.	2b-/	.
8F\	.	.	.	.
8F\	.	.	.	.
8F\J	.	.	.	.
8F\L	8d/L	.	8b-/L	.
8F\	8B-/	.	8en/	.
8F\	8B-/	.	8e/|	.
8F\J	8B-/J	.	8e/J	.
*Xtremolo	*	*	*	*
=126	=126	=126	=126	=126
4F\	4A/	.	4f/	.
*	*	*	*tremolo	*
4r	4r	.	16c/LL	.
.	.	.	16c/	.
.	.	.	16c/	.
.	.	.	16c/JJ	.
2r	2rg	.	16f/LL	.
.	.	.	16f/	.
.	.	.	16f/	.
.	.	.	16f/JJ	.
.	.	.	16a/LL	.
.	.	.	16a/	.
.	.	.	16a/	.
.	.	.	16a/JJ	.
=127	=127	=127	=127	=127
*	*tremolo	*	*	*
!	!LO:TX:a:t=P:problem:przed tym taktem skreślony takt	!	!	!
4r	16c/LL	.	16cc\LL	.
.	16c/	.	16cc\	.
.	16c/	.	16cc\	.
.	16c/	.	16cc\	.
4C/	16c/	.	16cc\	.
.	16c/	.	16cc\	.
.	16c/	.	16cc\	.
.	16c/JJ	.	16cc\JJ	.
4F/	16c/LL	.	16a/LL	.
.	16c/	.	16a/	.
.	16c/	.	16a/	.
.	16c/	.	16a/JJ	.
4A/	16c/	.	16f/LL	.
.	16c/	.	16f/	.
.	16c/	.	16f/	.
.	16c/JJ	.	16f/JJ	.
=128	=128	=128	=128	=128
2c\	16c/LL	.	16e/LL	.
.	16c/	.	16e/	.
.	16c/	.	16e/	.
.	16c/	.	16e/JJ	.
.	16c/	.	16c/LL	.
.	16c/	.	16c/	.
.	16c/	.	16c/	.
.	16c/JJ	.	16c/JJ	.
4A\	16c/LL	.	16f/LL	.
.	16c/	.	16f/	.
.	16c/	.	16f/	.
.	16c/	.	16f/JJ	.
4F\	16c/	.	16a/LL	.
.	16c/	.	16a/	.
.	16c/	.	16a/	.
.	16c/JJ	.	16a/JJ	.
=129	=129	=129	=129	=129
!	!	!	!LO:TX:a:t=P:problem:takty 129-130 zapisane repetycją, adnotacja bis	!
4E\|	16c/LL	.	16cc\yyLL	.
.	16c/	.	16cc\yy	.
.	16c/	.	16cc\yy	.
.	16c/	.	16cc\yy	.
4C\|	16c/	.	16cc\yy	.
.	16c/	.	16cc\yy	.
.	16c/	.	16cc\yy	.
.	16c/JJ	.	16cc\yyJJ	.
4F\|	16c/LL	.	16a/yyLL	.
.	16c/	.	16a/yy	.
.	16c/	.	16a/yy	.
.	16c/	.	16a/yyJJ	.
4A\|	16c/	.	16f/yyLL	.
.	16c/	.	16f/yy	.
.	16c/	.	16f/yy	.
.	16c/JJ	.	16f/yyJJ	.
=130	=130	=130	=130	=130
2c\	16c/LL	.	16e/yyLL	.
.	16c/	.	16e/yy	.
.	16c/	.	16e/yy	.
.	16c/	.	16e/yyJJ	.
.	16c/	.	16c/yyLL	.
.	16c/	.	16c/yy	.
.	16c/	.	16c/yy	.
.	16c/JJ	.	16c/yyJJ	.
!	!LO:LB:g=original	!	!	!
4A\	16c/LL	.	16f/yyLL	.
.	16c/	.	16f/yy	.
.	16c/	.	16f/yy	.
.	16c/	.	16f/yyJJ	.
4F\	16c/	.	16a/yyLL	.
.	16c/	.	16a/yy	.
.	16c/	.	16a/yy	.
.	16c/JJ	.	16a/yyJJ	.
*	*Xtremolo	*	*Xtremolo	*
=131	=131	=131	=131	=131
4C/	4c/	.	4cc\	.
4F\	4ff 4cc\	.	4aa\	.
4C/	4ee 4cc\	.	4gg\	.
4F\	4ff 4cc\	.	4aa\	.
=132	=132	=132	=132	=132
4C/	4ee 4cc\	.	4gg\	.
4r	4r	.	16cc\LL	.
.	.	.	32dd\L	.
.	.	.	32ee\	.
.	.	.	32ff\	.
.	.	.	32gg\	.
.	.	.	32aa\	.
.	.	.	32bbn\JJJ	.
4r	4r	.	4ccc\	.
4F\	4ff 4cc\	.	4aa\	.
=133	=133	=133	=133	=133
4C/	4ee 4cc\	.	4gg\	.
4F\	4ff 4cc\	.	4aa\	.
4C/	4ee 4cc\	.	4gg\	.
4F\	4ff 4cc\	.	4aa\	.
=134	=134	=134	=134	=134
4C/	4ee 4cc\	.	4gg\	.
4r	4r	.	4r	.
2r	2rg	.	4r	.
.	.	.	4c/	.
=135	=135	=135	=135	=135
!LO:TX:a:t=4	!	!	!	!
00r	4r	.	4f/	.
.	4A/	.	2f/	.
.	4c/	.	.	.
.	4d/	.	4g/	.
=136	=136	=136	=136	=136
.	2A/	.	2f/	.
.	4G/	.	4e/	.
.	4r	.	8f/L	.
.	.	.	8g/J	.
=137	=137	=137	=137	=137
.	4f/	.	4a/	.
.	2f/	.	2a/	.
.	4g/	.	4b-/	.
=138	=138	=138	=138	=138
.	(2f/	.	2a/	.
.	4e/)	.	4g/	.
.	4r	.	8a/L	.
.	.	.	8b-/J	.
!LO:LB:g=original	!	!	!	!
=139	=139	=139	=139	=139
1F	1A	.	2cc\	.
.	.	.	8cc\L	.
.	.	.	8ff\	.
.	.	.	8a\	.
.	.	.	8cc\J	.
=140	=140	=140	=140	=140
2G\	1B-	.	(8cc\L	.
.	.	.	8b-\	.
.	.	.	8a\	.
.	.	.	8g\J	.
!	!	!	!LO:LB:g=original	!
!	!	!	!LO:TX:b:t=P:problem:koniec łuku na dole	!
2C/	.	.	8f/L	.
.	.	.	8e/	.
.	.	.	8d/	.
.	.	.	8c/J)	.
=141	=141	=141	=141	=141
4F\	1A	.	4f/	.
4C\	.	.	2f/	.
4AA/	.	.	.	.
4FF/	.	.	4g/	.
=142	=142	=142	=142	=142
.	.	.	8qqa/	.
1C	1B-	.	2g/	.
.	.	.	(8f/L	.
.	.	.	8e/	.
.	.	.	8d/	.
.	.	.	8c/J)	.
!	!LO:LB:g=original	!	!	!
=143	=143	=143	=143	=143
1F	2c/	.	2cc\	.
.	(8c/L	.	8cc\L	.
.	8f/	.	8ff\	.
.	8a/	.	8aa\	.
.	8cc/J)	.	8ccc\J	.
=144	=144	=144	=144	=144
2G\	8cc/L	.	8ccc\L	.
.	(8b-/	.	(8bb-\	.
.	8a/	.	8aa\	.
.	8g/J	.	8gg\J	.
2C/	8f/L	.	8ff\L	.
.	8e/	.	8ee\	.
.	8d/)	.	8dd\	.
.	8c/J	.	8cc\J)	.
=145	=145	=145	=145	=145
4F\|	4f/	.	4ff\	.
4c\|	4.f/	.	4.ff\	.
4A\|	.	.	.	.
.	(8g/L	.	8gg\L	.
4F\|	8a/	.	8aa\	.
.	8b-/J)	.	8bb-\J	.
=146	=146	=146	=146	=146
.	8qa/	.	8qqaa/	.
1C	2g/	.	2gg\	.
.	8f/L	.	(8ff\L	.
.	8e/	.	8ee\	.
.	8d/	.	8dd\	.
.	8c/J	.	8cc\J)	.
=147	=147	=147	=147	=147
*tremolo	*tremolo	*	*tremolo	*
8F\L	16a/LL	.	16ff\LL	.
.	16a/	.	16ff\	.
8F\	16a/	.	16ff\	.
.	16a/	.	16ff\	.
8F\	16a/	.	16ff\	.
.	16a/	.	16ff\	.
8F\J	16a/	.	16ff\	.
.	16a/JJ	.	16ff\JJ	.
4F\	4a/	.	4ff\	.
4r	4r	.	4r	.
=148	=148	=148	=148	=148
8E\L	16gg 16a\LL	.	16bb-\LL	.
.	16gg 16a\	.	16bb-\	.
8E\	16gg 16a\	.	16bb-\	.
.	16gg 16a\	.	16bb-\	.
8E\	16gg 16a\	.	16bb-\	.
.	16gg 16a\	.	16bb-\	.
8E\J	16gg 16a\	.	16bb-\	.
.	16gg 16a\JJ	.	16bb-\JJ	.
4E\	4gg 4cc\	.	4bb-\	.
4r	4r	.	4r	.
=149	=149	=149	=149	=149
8F\L	16ff 16cc\LL	.	16aa\LL	.
.	16ff 16cc\	.	16aa\	.
8F\	16ff 16cc\	.	16aa\	.
.	16ff 16cc\	.	16aa\	.
8F\	16ff 16cc\	.	16aa\	.
.	16ff 16cc\	.	16aa\	.
8F\J	16ff 16cc\	.	16aa\	.
.	16ff 16cc\JJ	.	16aa\JJ	.
4F\	4ff 4cc\	.	4aa\	.
!LO:TX:a:t=P:problem:po tym takcie skreślone trzy takty	!	!	!	!
4r	4r	.	4r	.
!LO:LB:g=original	!	!	!LO:LB:g=original	!
=150	=150	=150	=150	=150
8BB-/L	16ff\LL	.	16ddd\LL	.
.	16ff\	.	16ddd\	.
8BB-/	16ff\	.	16ddd\	.
.	16ff\	.	16ddd\	.
8BB-/	16ff\	.	16ddd\	.
.	16ff\	.	16ddd\	.
8BB-/J	16ff\	.	16ddd\	.
.	16ff\JJ	.	16ddd\JJ	.
*Xtremolo	*	*	*	*
4BB-/	4ff\	.	4ddd\	.
4r	4r	.	4r	.
=151	=151	=151	=151	=151
4AA/	16f/LL	.	8ddd\L	.
.	16f/	.	.	.
.	16f/	.	8ff\	.
.	16f/	.	.	.
8.F\L	16f/	.	8ff\	.
.	16f/	.	.	.
.	16f/	.	8ff\J	.
16G\Jk	16f/JJ	.	.	.
8A\L	16f/LL	.	4.ff\	.
.	16f/	.	.	.
8A\	16f/	.	.	.
.	16f/	.	.	.
8B-\	16f/	.	.	.
.	16f/	.	.	.
!LO:TX:b:t=50.	!	!	!LO:TX:a:t=50	!
8B-\J	16f/	.	8dd\	.
.	16f/JJ	.	.	.
!	!LO:LB:g=original	!	!	!
=152	=152	=152	=152	=152
*tremolo	*	*	*	*
8A\L	16f/LL	.	16cc\LL	.
.	16f/	.	16cc\	.
8A\	16f/	.	16cc\	.
.	16f/	.	16cc\JJ	.
8A\	16f/	.	16cc#X\LL	.
.	16f/	.	16cc#X\	.
8A\J	16f/	.	16cc#X\	.
.	16f/JJ	.	16cc#X\JJ	.
*Xtremolo	*	*	*	*
8B-\L	16f/LL	.	16dd\LL	.
.	16f/	.	16dd\	.
8B-\	16f/	.	16dd\	.
.	16f/	.	16dd\JJ	.
8d\	16f/	.	16b-\LL	.
.	16f/	.	16b-\	.
8d\J	16f/	.	16b-\	.
.	16f/JJ	.	16b-\JJ	.
=153	=153	=153	=153	=153
*tremolo	*	*	*	*
8c\L	16f/LL	.	16a/LL	.
.	16f/	.	16a/	.
8c\	16f/	.	16a/	.
.	16f/	.	16a/	.
8c\	16f/	.	16a/	.
.	16f/	.	16a/	.
8c\J	16f/	.	16a/	.
.	16f/JJ	.	16a/JJ	.
8C/L	16e/LL	.	16g/LL	.
.	16e/	.	16g/	.
8C/	16e/	.	16g/	.
.	16e/	.	16g/	.
8C/	16e/	.	16g/	.
.	16e/	.	16g/	.
8C/J	16e/	.	16g/	.
.	16e/JJ	.	16g/JJ	.
=154	=154	=154	=154	=154
8F\L	16A/LL	.	16f/LL	.
.	16A/	.	16f/	.
8F\	16A/	.	16f/	.
.	16A/	.	16f/	.
8F\	16A/	.	16f/	.
.	16A/	.	16f/	.
8F\J	16A/	.	16f/	.
.	16A/JJ	.	16f/JJ	.
4F\	4A/	.	4f/	.
4r	4r	.	4r	.
=155	=155	=155	=155	=155
8E\L	16g/LL	.	16b-\LL	.
.	16g/	.	16b-\	.
8E\	16g/	.	16b-\	.
.	16g/	.	16b-\	.
8E\	16g/	.	16b-\	.
.	16g/	.	16b-\	.
8E\J	16g/	.	16b-\	.
.	16g/JJ	.	16b-\JJ	.
4E\	4g/	.	4b-\	.
4r	4r	.	4r	.
=156	=156	=156	=156	=156
8F\L	16f/LL	.	16a/LL	.
.	16f/	.	16a/	.
8F\	16f/	.	16a/	.
.	16f/	.	16a/	.
8F\	16f/	.	16a/	.
.	16f/	.	16a/	.
8F\J	16f/	.	16a/	.
.	16f/JJ	.	16a/JJ	.
4F\	4f/	.	4a/	.
4r	4r	.	4r	.
=157	=157	=157	=157	=157
8C/L	16a 16f#X/LL	.	16ee-X 16f#X/LL	.
.	16a 16f#X/	.	16ee-X 16f#X/	.
8C/	16a 16f#X/	.	16ee-X 16f#X/	.
.	16a 16f#X/	.	16ee-X 16f#X/	.
8C/	16a 16f#X/	.	16ee-X 16f#X/	.
.	16a 16f#X/	.	16ee-X 16f#X/	.
8C/J	16a 16f#X/	.	16ee-X 16f#X/	.
.	16a 16f#X/JJ	.	16ee-X 16f#X/JJ	.
*Xtremolo	*Xtremolo	*	*	*
4C/	4a 4f#/	.	4ee- 4f#/	.
4r	4r	.	4r	.
!LO:LB:g=original	!	!	!	!
=158	=158	=158	=158	=158
4BB-/	4r	.	4r	.
4r	4dd\	.	4bb-\	.
2r	4cc\	.	4aa\	.
.	4b-\	.	4gg\	.
!	!	!	!LO:LB:g=original	!
=159	=159	=159	=159	=159
2D/	4.a/	.	4.ff#X\	.
.	16b-\LL	.	16gg\LL	.
.	16cc\JJ	.	16aa\JJ	.
4GG/	4b-/	.	4gg\	.
4r	4r	.	4r	.
=160	=160	=160	=160	=160
4AA/	4r	.	4r	.
4r	(4a/	.	4aa\	.
2rC	4b-/	.	4gg\	.
.	4cc/)	.	4ff\	.
=161	=161	=161	=161	=161
2B-X\	(2dd-X\	.	4.een\	.
.	.	.	(16ff\LL	.
.	.	.	16gg\JJ)	.
4A\	4cc\)	.	4ff\	.
4r	4r	.	4r	.
!	!LO:LB:g=original	!	!	!
=162	=162	=162	=162	=162
2r	2rg	.	8cc\L	.
.	.	.	8b-\J	.
.	.	.	2b-/	.
4r	4r	.	.	.
4D-X/	4f/	.	4b-/	.
=163	=163	=163	=163	=163
4C/	(4e/	.	4b-\	.
4D/	4f/	.	2gg 2b-\	.
4C/	4e/	.	.	.
4D/	4f/)	.	4b-\	.
=164	=164	=164	=164	=164
4C/	4e/	.	4b-\	.
4r	4r	.	2b-\	.
4r	4r	.	.	.
4D-X\	4f/	.	4b-\	.
=165	=165	=165	=165	=165
4C/	(4e/	.	4b-\	.
4D/	4f/	.	2gg 2b-\	.
4C/	4e/	.	.	.
4D/	4f/)	.	4b-\	.
=166	=166	=166	=166	=166
4C/	4e/	.	4b-\	.
4r	4c/	.	4cc\	.
2r	4e/	.	4ee\	.
.	4g/	.	4gg\	.
=167	=167	=167	=167	=167
!LO:TX:a:t=P:problem:takt zapisany repetycją, adnotacja bis	!	!	!	!
4C/yy	4b-\	.	4bb-\	.
4ryy	4r	.	4r	.
2ryy	2rg	.	2r	.
!LO:LB:g=original	!	!	!	!
=168	=168	=168	=168	=168
*	*tremolo	*	*	*
!LO:TX:a:t=P:problem:przed tym taktem skreślony takt	!	!	!	!
8F\L	16cc\LL	.	16aa\LL	.
.	16cc\	.	16aa\	.
8F\	16cc\	.	16aa\	.
.	16cc\JJ	.	16aa\JJ	.
8AA\	16f/LL	.	16ff\LL	.
.	16f/	.	16ff\	.
8AA\J	16f/	.	16ff\	.
.	16f/JJ	.	16ff\JJ	.
!	!	!	!LO:LB:g=original	!
8BB-/L	16f/LL	.	16dd\LL	.
.	16f/	.	16dd\	.
8BB-/	16f/	.	16dd\	.
.	16f/	.	16dd\JJ	.
8D/	16f/	.	16b-\LL	.
.	16f/	.	16b-\	.
8D/J	16f/	.	16b-\	.
.	16f/JJ	.	16b-\JJ	.
=169	=169	=169	=169	=169
*tremolo	*	*	*	*
8C/L	16f/LL	.	16a/LL	.
.	16f/	.	16a/	.
8C/	16f/	.	16a/	.
.	16f/	.	16a/	.
8C/	16f/	.	16a/	.
.	16f/	.	16a/	.
8C/J	16f/	.	16a/	.
.	16f/JJ	.	16a/JJ	.
8C/L	16e/LL	.	16g/LL	.
.	16e/	.	16g/	.
8C/	16e/	.	16g/	.
.	16e/	.	16g/	.
8C/	16e/	.	16g/	.
.	16e/	.	16g/	.
8C/J	16e/	.	16g/	.
.	16e/JJ	.	16g/JJ	.
*Xtremolo	*Xtremolo	*	*Xtremolo	*
=170	=170	=170	=170	=170
2F\	4f/	.	4f/	.
.	2f/	.	2ff\	.
2E-X\	.	.	.	.
.	8g/L	.	8gg\L	.
.	8a/J	.	8aa\J	.
=171	=171	=171	=171	=171
2D/	4b-\	.	4bb-\	.
.	2b-\	.	2bb-\	.
2BB-/	.	.	.	.
.	8cc\L	.	8ccc\L	.
.	8dd\J	.	8ddd\J	.
!	!LO:LB:g=original	!	!	!
=172	=172	=172	=172	=172
2AA/	8dd\L	.	8ddd\L	.
.	8cc\J	.	8ccc\J	.
.	2cc\	.	2ccc\	.
2D/	.	.	.	.
.	4b-\	.	8bb-\L	.
.	.	.	8aa\J	.
=173	=173	=173	=173	=173
4BB-/	8a/L	.	8ccc\L	.
.	8g/J	.	8bb-\J	.
8.C/L	2f/	.	2aa\	.
16BB-/Jk	.	.	.	.
4C/	.	.	.	.
4C/	4e/	.	4gg\	.
=174	=174	=174	=174	=174
2F\	4f/	.	4ff\	.
.	2f/	.	2f/	.
2E-X\	.	.	.	.
.	(8g/L	.	8g/L	.
.	8a/J)	.	8a/J	.
=175	=175	=175	=175	=175
2D\	4b-\	.	4b-\	.
.	2b-\	.	2b-\	.
2BB-/	.	.	.	.
.	(8cc\L	.	8cc\L	.
.	8dd\J)	.	8dd\J	.
!LO:LB:g=original	!	!	!	!
=176	=176	=176	=176	=176
2AA/	8dd\L	.	8dd\L	.
.	8cc\J	.	8cc\J	.
.	2cc\	.	2cc\	.
2D/	.	.	.	.
.	8b-/L	.	8b-\L	.
.	8a/J	.	8a\J	.
=177	=177	=177	=177	=177
4GG/	8a/L	.	8cc\L	.
.	8g/J	.	8b-\J	.
8C/L	2f/	.	2a/	.
8BB-/J	.	.	.	.
4C/	.	.	.	.
4C/	4e/	.	4g/	.
!	!	!	!LO:LB:g=original	!
=178	=178	=178	=178	=178
*tremolo	*	*	*	*
8F\L	16A/LL	.	4f/	.
.	16f/	.	.	.
8F\	16A/	.	.	.
.	16f/JJ	.	.	.
8F\	16A/LL	.	8r	.
.	16f/	.	.	.
8F\J	16A/	.	8f/	.
.	16f/JJ	.	.	.
*	*rep	*	*	*
8F\L	16A/LL	.	8a/L	.
.	16f/	.	.	.
8F\	16A/	.	8f/	.
.	16f/JJ	.	.	.
*	*Xrep	*	*	*
*	*rep	*	*	*
8F\	16A/LL	.	8a/	.
.	16f/	.	.	.
8F\J	16A/	.	8cc/J	.
.	16f/JJ	.	.	.
*	*Xrep	*	*	*
!	!LO:LB:g=original	!	!	!
=179	=179	=179	=179	=179
8F\L	16f/LL	.	4a/	.
.	16a/	.	.	.
8F\	16f/	.	.	.
.	16a/JJ	.	.	.
8F\	16f/LL	.	8r	.
.	16a/	.	.	.
8F\J	16f/	.	8a/	.
.	16a/JJ	.	.	.
*	*rep	*	*	*
8F\L	16f/LL	.	8cc\L	.
.	16a/	.	.	.
8F\	16f/	.	8a\	.
.	16a/JJ	.	.	.
*	*Xrep	*	*	*
*	*rep	*	*	*
8F\	16f/LL	.	8cc\	.
.	16a/	.	.	.
8F\J	16f/	.	8ff\J	.
.	16a/JJ	.	.	.
*	*Xrep	*	*	*
=180	=180	=180	=180	=180
8F\L	16a/LL	.	4cc\	.
.	16cc/	.	.	.
8F\	16a/	.	.	.
.	16cc/JJ	.	.	.
8F\	16a/LL	.	8r	.
.	16cc/	.	.	.
8F\J	16a/	.	8cc\	.
.	16cc/JJ	.	.	.
*	*rep	*	*	*
8F\L	16a/LL	.	8ff\L	.
.	16cc/	.	.	.
8F\	16a/	.	8cc\	.
.	16cc/JJ	.	.	.
*	*Xrep	*	*	*
*	*rep	*	*	*
8F\	16a/LL	.	8ff\	.
.	16cc/	.	.	.
8F\J	16a/	.	8aa\J	.
.	16cc/JJ	.	.	.
*Xtremolo	*Xrep	*	*	*
=181	=181	=181	=181	=181
*	*tremolo	*	*	*
8F\L	16a/LL	.	4ff\	.
.	16a/	.	.	.
8E\	16a/	.	.	.
.	16a/	.	.	.
*	*	*	*tremolo	*
8D\	16a/	.	16ff\LL	.
.	16a/	.	16ff\	.
8AA\J	16a/	.	16ff\	.
.	16a/JJ	.	16ff\	.
8BB-/L	16g/LL	.	16ff\	.
.	16g/	.	16ff\	.
8GG/	16g/	.	16ff\	.
.	16g/JJ	.	16ff\JJ	.
8C/	16b- 16g/LL	.	16ee\LL	.
.	16b- 16g/	.	16ee\	.
8C/J	16b- 16g/	.	16ee\	.
.	16b- 16g/JJ	.	16ee\JJ	.
=182	=182	=182	=182	=182
8F\L	16a/LL	.	16ff\LL	.
.	16a/	.	16ff\	.
8E\	16a/	.	16ff\	.
.	16a/	.	16ff\JJ	.
8D\	16a/	.	16ff\LL	.
.	16a/	.	16ff\	.
8AA\J	16a/	.	16ff\	.
.	16a/JJ	.	16ff\	.
8BB-/L	16g/LL	.	16ff\	.
.	16g/	.	16ff\	.
8GG/	16g/	.	16ff\	.
.	16g/JJ	.	16ff\JJ	.
8C/	16b- 16g/LL	.	16ee\LL	.
.	16b- 16g/	.	16ee\	.
8C/J	16b- 16g/	.	16ee\	.
.	16b- 16g/JJ	.	16ee\JJ	.
*	*Xtremolo	*	*Xtremolo	*
!LO:LB:g=original	!	!	!	!
=183	=183	=183	=183	=183
*	*^	*	*	*
4F\	4a/	4f\	.	4ff 4a/	.
*	*v	*v	*	*	*
4r	4r	.	4r	.
*	*^	*	*	*
4F\	4a/	4f\	.	4ff 4a/	.
4F\	4a/	4f\	.	4ff 4a/	.
=184	=184	=184	=184	=184	=184
2F\	2a/	2f\	.	2ff 2a/	.
*	*v	*v	*	*	*
!LO:TX:b:t=183.	!LO:TX:b:t=183.	!	!LO:TX:b:t=183.	!
2r	2rg	.	2rg	.
==	==	==	==	==
*-	*-	*-	*-	*-
!!!system-decoration: [s1,s2,s3]
!!!RDF**kern: < = below
!!!AIN: 1 empty 2 violn
!!!ENC: Marta Lawrence
!!!END: 2020-11-22
!!!ENC: Marta Chmielewska
!!!END: 2020-06-10
!!!RDF**kern: | = vertical stroke
